X:302
T: WAS KANN MICH DENN MEHR ERGOETZEN
N: E1451A
O: Europa, Mitteleuropa, Deutschland, Hessen, Taunus
R: Staende -, Jaeger - Lied
M: 4/4
L: 1/8
K: G
 | G3AB2d2 | A2BAG2GA |
B3cd2e2 | c2dcB4 |
G3AB2d2 | A2BAG2GA |
B3cd2e2 | c2dcB4 |
d2d2e2ed | c2ced4 |
B2Bdc4 | B2B2A4 |
B2B2c2ce | d2dcB2z2

@@@ Tune index: 4986
